X: 29748
T: Nyth Y Gwcw
R: barndance
M: 4/4
K: Edorian
|:F|GFGF E2 e2|B2 B2 A4|GFGF E2 Bc|d2 d2 F3 F|
GFGF E2 e2|B2 B2 A4|GFGF EFGA|B2 B2 e3:|
|:f|efgf e2 e2|dcBA B4|efga b2 b2|a2 e2 e3 f|
gfgf e2 e2|dcBA B3 A|GFGF EFGA|B2 B2 e3:|

